<?xml version="1.0" encoding="UTF-8"?>
<map version="1.10" tiledversion="1.11.2" orientation="orthogonal" renderorder="right-down" width="40" height="23" tilewidth="32" tileheight="32" infinite="0" nextlayerid="2" nextobjectid="1">
 <tileset firstgid="1" name="Room_Builder_Office_32x32" tilewidth="32" tileheight="32" tilecount="224" columns="16">
  <image source="Downloads/Modern_Office_Revamped_v1.2/1_Room_Builder_Office/Room_Builder_Office_32x32.png" width="512" height="448"/>
 </tileset>
 <layer id="1" name="Tile Layer 1" width="40" height="23">
  <data encoding="csv">
24,178,178,178,178,178,178,178,178,178,178,178,26,24,178,178,178,178,178,178,178,178,178,178,178,26,24,178,178,178,178,178,178,178,178,178,178,178,178,26,
40,182,182,182,182,182,182,182,182,182,182,182,42,40,201,201,201,201,201,201,201,201,201,201,201,42,40,201,201,201,201,201,201,201,201,201,201,201,201,42,
40,91,92,92,92,92,92,92,92,92,92,92,42,40,91,92,92,92,92,92,92,92,92,92,92,42,40,91,92,92,92,92,92,92,92,92,92,92,92,42,
178,107,108,108,108,108,108,108,108,108,108,108,178,178,107,108,108,108,108,108,108,108,108,108,108,178,178,107,108,108,108,108,108,108,108,108,108,108,108,42,
194,107,108,108,108,108,108,108,108,108,108,108,194,194,107,108,108,108,108,108,108,108,108,108,108,194,194,107,108,108,108,108,108,108,108,108,108,108,108,42,
92,108,108,108,108,108,108,108,108,108,108,108,92,92,108,108,108,108,108,108,108,108,108,108,108,92,92,108,108,108,108,108,108,108,108,108,108,108,108,42,
108,108,108,108,108,108,108,108,108,108,108,108,108,108,108,108,108,108,108,108,108,108,108,108,108,108,108,108,108,108,108,108,108,108,108,108,108,108,108,42,
34,107,108,108,108,108,108,108,108,108,108,108,35,34,107,108,108,108,108,108,108,108,108,108,108,35,34,107,108,108,108,108,108,108,108,108,108,108,108,42,
40,107,108,108,108,108,108,108,108,108,108,108,42,40,107,108,108,108,108,108,108,108,108,108,108,42,40,107,108,108,108,108,108,108,108,108,108,108,108,42,
40,107,108,108,108,108,108,108,108,108,108,108,42,40,107,108,108,108,108,108,108,108,108,108,108,42,40,107,108,108,108,108,108,108,108,108,108,108,108,42,
56,57,57,57,57,57,57,57,57,57,57,57,58,56,57,57,57,57,57,57,57,57,57,57,57,58,56,57,57,57,57,11,108,108,13,57,57,57,57,58,
24,153,153,153,153,153,153,153,153,153,153,153,26,24,178,178,178,178,178,178,178,178,178,178,178,26,24,146,146,146,146,154,108,108,152,146,146,146,146,26,
4,150,150,150,150,150,150,150,150,150,150,150,42,40,201,201,201,201,201,201,201,201,201,201,201,42,4,169,169,169,169,170,108,108,168,169,169,169,169,42,
4,95,95,95,95,95,95,95,95,95,95,95,42,40,92,92,92,92,92,92,92,92,92,92,92,42,4,95,95,95,95,95,111,111,95,95,95,95,95,42,
4,111,111,111,111,111,111,111,111,111,111,111,42,40,108,108,108,108,108,108,108,108,108,108,108,42,4,111,111,111,111,111,111,111,111,111,111,111,111,42,
4,111,111,111,111,111,111,111,111,111,111,111,178,178,108,108,108,108,108,108,108,108,108,108,108,178,178,111,111,111,111,111,111,111,111,111,111,111,111,42,
4,111,111,111,111,111,111,111,111,111,111,111,194,194,108,108,108,108,108,108,108,108,108,108,108,182,182,111,111,111,111,111,111,111,111,111,111,111,111,42,
4,111,111,111,111,111,111,111,111,111,111,111,92,92,108,108,108,108,108,108,108,108,108,108,108,92,92,111,111,111,111,111,111,111,111,111,111,111,111,42,
4,111,111,111,111,111,111,111,111,111,111,111,108,108,108,108,108,108,108,108,108,108,108,108,108,108,108,111,111,111,111,111,111,111,111,111,111,111,111,42,
4,111,111,111,111,111,111,111,111,111,111,111,35,34,108,108,108,108,108,108,108,108,108,108,108,35,34,111,111,111,111,111,111,111,111,111,111,111,111,42,
4,111,111,111,111,111,111,111,111,111,111,111,42,40,108,108,108,108,108,108,108,108,108,108,108,42,40,111,111,111,111,111,111,111,111,111,111,111,111,42,
4,111,111,111,111,111,111,111,111,111,111,111,42,40,108,108,108,108,108,108,108,108,108,108,108,42,40,111,111,111,111,111,111,111,111,111,111,111,111,42,
56,57,57,57,57,57,57,57,57,57,57,57,58,56,57,57,57,57,57,57,57,57,57,57,57,58,56,57,57,57,57,57,57,57,57,57,57,57,57,58
</data>
 </layer>
</map>
